X:12
T:De'il Amang the Tailors
M:4/4
L:1/8
R:Reel
K:A
eg|"A"{g}a2 eg {g}a2 eg|"A"{g}a2 ea fedc|"Bm"dfBf dfBf|"Bm"dfba "E"gefg|
!
"A"{g}a2 eg {g}a2 eg|"A"{g}a2 ea fedc|"D"defd "A"ecBA|"E"E2 G2 "A"A2:|!
|:e2|"A"ceAe ceAe|"A"ceag fedc|"Bm"dfBf dfBf|"Bm"dfba gfed|!
"A"ceAe ceAe|"A"ceag fedc|"D"defd "A"ecBA|"E"E2 G2 "A"A2:||
